icon-themes/breeze_svg/cmd/32/diagramarea.svg

<svg xmlns="http://www.w3.org/2000/svg" width="32" height="32" viewBox="0 0 32 32"><defs><linearGradient id="a"><stop offset="0" stop-color="#1d99f3"/><stop offset=".417" stop-color="#48acf5" stop-opacity=".761"/><stop offset=".667" stop-color="#73c0f7" stop-opacity="0"/><stop offset="1" stop-color="#cae7fc" stop-opacity="0"/></linearGradient></defs><path d="M4 4v24h24V4zm1 1h22v22H5z" fill="#f60"/><path d="M5 5v22h22V5zm1 1h20v20H6z" fill="#4d4d4d"/></svg>

<svg xmlns="http://www.w3.org/2000/svg" viewBox="0 0 32 32">
 <path 
     style="fill:#4d4d4d" 
     d="M 5 5 L 5 27 L 27 27 L 27 5 L 5 5 z M 6 6 L 26 6 L 26 26 L 6 26 L 6 6 z "
     />
 <path 
     style="fill:#f47750" 
     d="M 4 4 L 4 28 L 28 28 L 28 4 L 4 4 z M 5 5 L 27 5 L 27 27 L 5 27 L 5 5 z "
     />
</svg>
